X: 8429
T: Crabby Jig
R: slip jig
M: 9/8
K: Amixolydian
|dBA BBG Bcd|cBA GAB BAA|dBA BBG Bcd|gfe dcB B2A:|
gfe d=cB BBA|=fed =cde edd|gfe {g}=fed =cde|^cBA dcB B2A:|

